X: 125
T: Far From Home
T: Reel, G
L: 1/16
M: C|
K: G
|: D2| G2E2D2E2 G4 (G2A2)| B4B2A2 B2c2d4| G2E2D2E2 G4 (G2B2)| A2G2A2B2 A2G2E2F2| 
G2E2D2E2 G4 (G2A2)| B4B2A2 B2c2d4| e2d2e2f2 g2e2d2c2| B2G2A2F2 G6:| 
|: (ef)| g4 (g2e2) f4 (f2d2)| e4 (e2f2) e2d2B4| (g2e2) d2B2 G4 (G2B2)| A2G2A2B2 A2G2E2F2| 
G2E2D2E2 G4 (G2A2)| B4B2A2 B2c2d4| e2d2e2f2 g2e2d2c2| B2G2A2F2 G6:| 
D: Ray Ellis, More Like Me!, REC001, 1999
